svgs/sharp-regular/head-side-brain.svg

<svg xmlns="http://www.w3.org/2000/svg" viewBox="0 0 512 512"><!--! Font Awesome Pro 6.6.0 by @fontawesome - https://fontawesome.com License - https://fontawesome.com/license (Commercial License) Copyright 2024 Fonticons, Inc. --><path d="M112 361.7l0 19.6 0 66.8 0 16 0 48-16 0-32 0 0-32 0-16 0-82.8c-41-41.9-64-98.3-64-157C0 100.6 100.2 0 224 0l32 0C357.8 0 441.1 79.2 447.6 179.4l56.3 63.4 8.1 9.1 0 12.2 0 24 0 16 0 32-16 0-16 0-16 0-16 0 0 48 0 16 0 16 0 32-32 0-16 0-32 0-48 0 0 16 0 16 0 16 0 16-32 0-16 0 0-48 0-16 0-48 48 0 80 0 0-64 0-48 48 0 16 0 0-17.9-52.3-58.8-11-12.3-1.1-16.5C394.8 107.4 332.3 48 256 48l-32 0C126.8 48 48 127 48 224.2c0 46.1 18.1 90.5 50.3 123.4l13.7 14zM312 192l-40 0 0 16c0 22.1-17.9 40-40 40l-8 0 0 48 0 24-48 0 0-24 0-48-16 0c-22.1 0-40-17.9-40-40l0-3.3c-14.1-6.2-24-20.3-24-36.7c0-22.1 17.9-40 40-40l.2 0c2-18 17.2-32 35.8-32c6.2 0 12.1 1.6 17.2 4.3C196 88.2 209.1 80 224 80s28 8.2 34.8 20.3c5.1-2.8 10.9-4.3 17.2-4.3c12.7 0 23.8 6.5 30.2 16.4c1.9-.3 3.8-.4 5.8-.4c22.1 0 40 17.9 40 40s-17.9 40-40 40z"/></svg>

<svg xmlns="http://www.w3.org/2000/svg" viewBox="0 0 512 512"><!--! Font Awesome Pro 6.4.2 by @fontawesome - https://fontawesome.com License - https://fontawesome.com/license (Commercial License) Copyright 2023 Fonticons, Inc. --><path d="M112 361.7v19.6V448v16 48H96 64V480 464 381.2c-41-41.9-64-98.3-64-157C0 100.6 100.2 0 224 0h32C357.8 0 441.1 79.2 447.6 179.4l56.3 63.4 8.1 9.1V264v24 16 32H496 480 464 448v48 16 16 32H416 400 368 320v16 16 16 16H288 272V464 448 400h48 80V336 288h48 16V270.1l-52.3-58.8-11-12.3-1.1-16.5C394.8 107.4 332.3 48 256 48H224C126.8 48 48 127 48 224.2c0 46.1 18.1 90.5 50.3 123.4l13.7 14zM312 192H272v16c0 22.1-17.9 40-40 40h-8v48 24H176V296 248H160c-22.1 0-40-17.9-40-40v-3.3c-14.1-6.2-24-20.3-24-36.7c0-22.1 17.9-40 40-40l.2 0c2-18 17.2-32 35.8-32c6.2 0 12.1 1.6 17.2 4.3C196 88.2 209.1 80 224 80s28 8.2 34.8 20.3c5.1-2.8 10.9-4.3 17.2-4.3c12.7 0 23.8 6.5 30.2 16.4c1.9-.3 3.8-.4 5.8-.4c22.1 0 40 17.9 40 40s-17.9 40-40 40z"/></svg>
